X:1
T:Banjo Envy
M:C
L:1/8
Q:220
C:(c) Greg Anderson, 8 Oct 1999
R:Reel
N:I love the sound of the old-time 5-string banjo. This tune I wrote for
N:Jim Joseph, long time friend and music compatriot who plays a mean
N:banjo way down there in Phippsburg, Maine
K:G
GA|:B2 d2- dd g2|e2 ef ed BA|G2 GA BG FG|
ED EF EF GA|B2 d2- dd g2|!e2 ef ed ef|ga bg ea gf|
1ed ef eB GA:|2ef ed e2 f2|:g3 e d2 B2-|Bd BA B4|!
A2 AA G2 A2|GE ED E2 d2|e3 f g2 e2|de dB d2 ba|
g2 e2 e2 d2|1e4 e2 f2:|2e6 GA||
